X:1
T:Death hath deprived me - Weelkes
T:#
%%score { 1 | 2 } { 3 | 4 } 5 6
L:1/8
Q:1/4=108
M:4/4
K:Eb
V:1 treble nm="Soprano I" snm="S"
V:2 treble 
V:3 treble nm="Alto I" snm="A"
V:4 treble 
V:5 treble-8 nm="Tenor" snm="T"
V:6 bass nm="Bass" snm="B"
V:1
 z8 |"^Death hath deprived me" z8 | z8 | z8 | c8 | z4 e4- | e4"^Thomas Weelkes\n(1576-1623)" d4 | %7
w: ||||Death|hath|* de-|
 c6 c2 |[M:4/4] B4 =A4 | B4 c2 c2 | d4 c4 | d6 d2 | c8 | z8 | z4 c4 | c6 c2 | d4 _d4 | _d8 | A8 | %19
w: priv- ed|me of|my dear- est|friend, my|dear- est|friend,||my|dear- est|friend is|dead|and|
 _D4 E4 | F8 | z8 | z8 | c8 | F6 F2 | F8 | z8 | z8 | z4 c4 | G6 G2 | G4 z4 | z8 | z8 | z4 z2 g2- | %34
w: laid in|grave,|||in|grave he|rests,|||in|grave he|rests|||un\-|
 gf e2 d2 c2 | =B4 z2 B2 | c6 c2 | =B4 z4 | z4 F4 | _B8 | F4 c4 | d8 | =e8 | z4 c4- | c2 c2 c4 | %45
w: * til the world shall|end, the|world shall|end,|as|end|must all|things|have.|All|* things must|
 B8- | B8 | z4 (g4- | g2 f2 e4) | d4 e4 | f6 f2 | g8 | z4 z2 =e2 | f3 f =e4 | z4 c4- | c4 B4- | %56
w: have||an||end that|Na- ture|wrought,|that|Na- ture wrought,|must|* un\-|
 B2 B2 A4 | G8 | =A8 | z8 | z8 | z8 | z4 F4 | G4 (F4- | F2 ED) E4- | E4 D4 | E4 z4 | z8 | z4 e4- | %69
w: * to dust|be|brought,||||must|un- to|* * * dust|* be|brought,||must|
 e2 dc d4 | g8- | g4 f4- |[Q:1/4=107] f2[Q:1/4=106] (e[Q:1/4=105]d[Q:1/4=103] e4) | %73
w: * un- to dust,|must|* un\-|* to * *|
[Q:1/4=99] d6[Q:1/4=96] d2 |[Q:1/4=96] =e8 |] %75
w: dust be|brought.|
V:2
 G8 | z4 A4- | A4 G4 | G8- | G4 G4 | B8 | z4 f4- | f4 e4 |[M:4/4] d6 d2 | G4 c4 | =B4 c4- | %11
w: Death|hath|* de-|priv\-|* ed|me,|hath|* de-|priv- ed|me of|my dear\-|
 c4 =B4 | c4 G4 | G6 G2 | =A8 | z8 | z8 | z4 A4 | F4 A4 | _G8 | (F8- | F4 =E4) | F8- | F8 | z8 | %25
w: * est|friend, my|dear- est|friend|||is|dead and|laid|in||grave,|||
 z4 F4 | F6 F2 | F4 c4 | c6 c2 | C8 | z8 | z8 | z8 | z2 g3 f e2 | d2 c2 =B2 z2 | z4 z2 d2 | e6 e2 | %37
w: in|grave he|rests, in|grave he|rests||||un- til the|world shall end,|the|world shall|
 d8 | f8 | e4 d4- | d4 c4- | c4 =B4 | c8 | z4 A4- | A2 A2 A4 | G4 (g4- | g2 f2 e4) | d4 e4 | %48
w: end,|as|end must|* all|* things|have.|All|* things must|have an||end that|
 f4 g4 | f4 e4- | e4 d4 | e4 z4 | z4 z2 c2 | c3 c c4 | z4 c4 | f4 d4 | c8 | c8 | c8 | z8 | z8 | %61
w: Na- ture|wrought, Na\-|* ture|wrought,|that|Na- ture wrought,|must|un- to|dust|be|brought,|||
 z8 | z4 B4- | B4 A4- | A2 (GF G4) | F6 F2 | G4 d4 | c8 | =B4 c4 | z4 d4- | d2 c=B c4 | (B6 c2) | %72
w: |must|* un\-|* to * *|dust be|brought, to|dust|be brought,|must|* un- to dust|be *|
 d4 (c4- | c2 =B=A B4) | c8 |] %75
w: brought, be||brought.|
V:3
 z8 | E8 | z4 E4- | E4 D4 | E6 E2 | D4 G4 | C4 D4 | G4 G4- |[M:4/4] G4 F4 | E4 _A4 | G8- | G8 | %12
w: |Death|hath|* de-|priv- ed|me, de-|priv- ed|me of|* my|dear- est|friend,||
 G8 | z8 | z4 =A4 | =A6 A2 | B4 _G4 | F8 | _D4 E4 | (B,4 C4) | _D4 (C4 | B,8) | C8- | C8 | z4 _D4 | %25
w: ||my|dear- est|friend is|dead|and laid|in *|grave, in||grave,||in|
 C6 C2 | =D8- | D4 G4 | F8 | E8 | D4 z4 | z8 | z4 z2 G2- | GF E2 D2 C2 | =B,2 z2 z4 | z4 z2 G2 | %36
w: grave he|rests,|* in|grave|he|rests||un\-|* til the world shall|end,|the|
 G6 G2 | G4 (_B4- | B4 =A4) | G4 D4- | D4 E4 | G8 | G8 | z4 _E4- | E2 E2 E4 | E8 | z4 (B4- | %47
w: world shall|end, as||end must|* all|things|have.|All|* things must|have|an|
 B2 A2 G4) | B4 B4- | B2 (A2 G4 | F4) B4 | B4 z2 c2 | A3 A G2 G2 | A3 A G4 | z4 G4 | C4 G4- | %56
w: |end that|* Na\- *|* ture|wrought, that|Na- ture wrought, that|Na- ture wrought,|must|un- to|
 G4 F4 | G4 C4 | C4 F4- | F4 E4- | E2 (DC D4) | C6 C2 | D4 D4 | E4 C4 | D4 (B4- | B2 A2 F4) | %66
w: * dust|be *|brought, must|* un\-|* to * *|dust be|brought, must|un- to|dust be||
 E2 E2 B4- | B2 (AG A4) | G4 C4 | G4 F4- | F2 (ED E4) | G8 | G8- | G8 | G8 |] %75
w: brought, must un\-|* to * *|dust be|brought, un\-|* to * *|dust|be||brought.|
V:4
 z8 | C8 | z4 C4- | C4 =B,4 | C6 C2 | G,8 | =A,4 =B,4 | C4 C4 |[M:4/4] D8 | z4 F4- | F4 E4 | %11
w: |Death|hath|* de-|priv- ed|me|of my|dear- est|friend,|of|* my|
 D6 D2 | =E4 E4 | =E6 E2 | F8- | F8 | z8 | z4 F,4 | A,8 | B,8 | B,4 C4 | _D4 B,4 | =A,8- | A,8 | %24
w: dear- est|friend, my|dear- est|friend|||is|dead|and|laid in|grave, in|grave||
 z4 B,4 | =A,6 A,2 | B,8- | B,4 E4 | C8- | C4 C4 | =B,4 z4 | z8 | z2 G3 F E2 | D2 C2 =B,2 z2 | z8 | %35
w: in|grave he|rests|* in|grave|* he|rests||un- til the|world shall end,||
 z4 z2 D2 | C6 C2 | D8 | z8 | G8 | F4 E4 | D6 D2 | C8 | z4 C4- | C2 C2 C4 | E4 (B4- | B2 A2 G4) | %47
w: the|world shall|end,||as|end must|all things|have.|All|* things must|have an||
 F4 E4 | (D4 B,4- | B,4) B4- | B2 A2 F4 | E4 z2 G2 | F3 F =E2 C2 | F3 F C4 | z4 =E4 | F6 (=ED) | %56
w: end that|Na- *|* ture||wrought, that|Na- ture wrought, that|Na- ture wrought,|must|un- to *|
 =E4 (F4- | F4 =E4) | F4 =A4 | B4 G4 | F8 | F8 | F8 | z8 | z8 | z8 | z4 D4 | G,4 C4 | G4 G4- | %69
w: dust be||brought, must|un- to|dust|be|brought,||||must|un- to|dust, un\-|
 G2 (FE) D4- | D4 C4 | D8 | z4 (G4- | G2 F2 D4) | C8 |] %75
w: * to * dust|* be|brought,|be||brought.|
V:5
 z8 | z8 | z8 | z8 | z8 | z8 | z8 | z8 |[M:4/4][K:treble-8] z8 | z8 | z8 | G8 | G6 G2 | c8- | c8 | %15
w: |||||||||||My|dear- est|friend||
 z8 | B8- | B4 A4- | A4 E4 | _G6 (FE) | B4 (F4 | B,8) | F8- | F8 | z4 B4 | F6 F2 | F8 | B4 G4 | %28
w: |is|* dead,|* is|dead and *|laid in||grave,||in|grave he|rests,|in grave|
 A8 | G8- | G4 z4 | z4 z2 g2- | gf e2 d2 c2 | =B2 z2 z4 | z8 | z4 z2 G2 | G6 G2 | G8 | d8 | B8 | %40
w: he|rests||un\-|* til the world shall|end,||the|world shall|end,|as|end|
 B4 G4 | G8 | G8 | z4 A4- | A2 A2 A4 | B8- | B8 | z4 (B4- | B2 A2 G4) | B4 B4 | B6 B2 | B4 z2 G2 | %52
w: must all|things|have.|All|* things must|have||an||end that|Na- ture|wrought, that|
 c3 c c4 | z8 | c8 | =A4 B4 | c8 | c8 | F4 c4 | B4 c4- | (c2 B=A) B4- | B4 =A4 | B4 B4 | G4 _A4 | %64
w: Na- ture wrought||must|un- to|dust|be|brought, must|un- to|* * * dust|* be|brought, must|un- to|
 B8 | B8 | E4 G4 | c4 f4- | f2 (ed e4) | (B6 c2) | d4 G4- | G4 d4- | d2 (c=B c4) | d4 G4 | G8 |] %75
w: dust|be|brought, must|un- to|* dust * *|be *|brought, must|* un\-|* to * *|dust be|brought.|
V:6
 z8 | z8 | z8 | z8 | z8 | z8 | z8 | z8 |[M:4/4] z8 | z8 | z8 | z8 | C,8 | C,6 C,2 | F,8- | F,8 | %16
w: ||||||||||||My|dear- est|friend||
 z4 B,,4 | _D,8- | D,4 C,4 | B,,8- | B,,4 (A,,4 | _G,,8) | F,,8- | F,,8 | z8 | z4 F,4 | B,,6 B,,2 | %27
w: is|dead|* and|laid|* in||grave,|||in|grave he|
 B,,4 C,4 | A,,6 A,,2 | C,8 | z8 | z2 G,3 F, E,2 | D,2 C,2 =B,,2 z2 | z8 | z8 | z4 G,4 | C,6 C,2 | %37
w: rests, in|grave he|rests||un- til the|world shall end,|||the|world shall|
 G,8 | D,8 | E,4 B,,4- | B,,4 C,4 | G,,8 | C,8 | z4 A,,4- | A,,2 A,,2 A,,4 | E,8 | (D,4 E,4) | %47
w: end,|as|end must|* all|things|have.|All|* things must|have|an *|
 B,,6 C,2 | (D,4 E,4) | B,,8- | B,,8 | E,4 z2 =E,2 | F,3 F, C,4 | z8 | z8 | z8 | z8 | z8 | z4 F,4 | %59
w: end that|Na\- *|ture||wrought, that|Na- ture wrought,||||||must|
 D,4 E,4 | F,8 | F,8 | B,,8 | z8 | z8 | z8 | z4 G,4 | =E,4 F,4 | G,8- | G,8 | G,8- | G,8 | G,8 | %73
w: un- to|dust|be|brought,||||must|un- to|dust||be|||
 G,8 | C,8 |] %75
w: |brought.|

